X:1
T:Title
%%score { 1 | 2 } { 3 | 4 }
L:1/8
M:3/4
K:Db
V:1 treble nm="Grand Piano, Staff"
V:2 treble 
V:3 bass nm="Choir Pad, Wetherby, CM"
V:4 bass 
V:1
 F2 A4 | FE D4 | A2 B4 | B2 A4 | A2 d4 | c2 cB A2 | =G2 A4 | A2 c4 | e2 d4 | A2 A2 G2 | F2 G4 | %11
w: By~Samuel~Sebastian~Wesley,~1872 *|||||||||||
 B2 A4 | D2 E2 F2 | E2 D4- | D4 z2 |] %15
w: ||||
V:2
 D2 F4 | C2 z2 z2 | D2 D4 | D2 D4 | E2 D4 | E2 F2 E2 | E2 C4 | E2 E4 | C2 D4 | F2 F2 E2 | =D2 E4 | %11
 G2 F4 | z2 D4 | C2 z2 z2 | z6 |] %15
V:3
 A,2 A,4 | A,G, F,4 | D,2 D,2 G,2 | D,E, F,4 | A,2 F,2 =G,2 | A,2[K:treble] D2 C2 | B,2 A,4 | %7
 C2 C4 | A,2 A,4 | C2 B,4 | B,2 B,4 | E,2 F,4 | A,2 B,2 A,2 | A,G, F,4- | F,4 z2 |] %15
V:4
 D,2 D,4 | A,,2 B,,4 | F,,2 G,,2 B,,2 | G,,2 D,4 | C,2 B,,4 | C,2 D,2 E,2 | E,2 A,,4 | A,,2 A,4 | %8
 G,2 F,4 | F,2 B,,4 | B,,2 E,4 | C,2 D,4 | F,2 G,2 z2 | A,,2 D,4- | D,4 z2 |] %15

